assets/grid_wordmark.svg

<?xml version="1.0" encoding="UTF-8" standalone="no"?>
<svg
   xmlns:dc="http://purl.org/dc/elements/1.1/"
   xmlns:cc="http://creativecommons.org/ns#"
   xmlns:rdf="http://www.w3.org/1999/02/22-rdf-syntax-ns#"
   xmlns:svg="http://www.w3.org/2000/svg"
   xmlns="http://www.w3.org/2000/svg"
   id="svg100"
   version="1.2"
   viewBox="0 0 325.68 92.72"
   height="92.72pt"
   width="325.68pt">
  <metadata
     id="metadata104">
    <rdf:RDF>
      <cc:Work
         rdf:about="">
        <dc:format>image/svg+xml</dc:format>
        <dc:type
           rdf:resource="http://purl.org/dc/dcmitype/StillImage" />
        <dc:title></dc:title>
      </cc:Work>
    </rdf:RDF>
  </metadata>
  <defs
     id="defs35">
    <clipPath
       id="clip1">
      <path
         id="path29"
         d="M 309 7 L 325.679688 7 L 325.679688 28 L 309 28 Z M 309 7 " />
    </clipPath>
    <clipPath
       id="clip2">
      <path
         id="path32"
         d="M 0 0 L 93 0 L 93 92.71875 L 0 92.71875 Z M 0 0 " />
    </clipPath>
  </defs>
  <g
     id="surface10909">
    <path
       id="path37"
       d="M 118.59375 19.667969 L 127.3125 19.625 L 127.363281 28.425781 L 131.847656 28.402344 L 131.742188 8.042969 L 127.253906 8.0625 L 127.296875 15.65625 L 118.574219 15.699219 L 118.535156 8.109375 L 114.046875 8.136719 L 114.148438 28.492188 L 118.640625 28.46875 L 118.59375 19.667969 "
       style=" stroke:none;fill-rule:nonzero;fill:rgb(13.464355%,13.723755%,14.414978%);fill-opacity:1;" />
    <path
       id="path39"
       d="M 142.722656 28.480469 L 147.214844 28.453125 L 147.171875 19.773438 L 154.761719 8.058594 L 149.433594 8.082031 L 144.898438 15.726562 L 140.542969 8.128906 L 134.960938 8.160156 L 142.679688 19.796875 L 142.722656 28.480469 "
       style=" stroke:none;fill-rule:nonzero;fill:rgb(13.464355%,13.723755%,14.414978%);fill-opacity:1;" />
    <path
       id="path41"
       d="M 164.714844 11.871094 C 165.136719 11.867188 165.582031 11.886719 166.042969 11.933594 C 166.503906 11.976562 166.925781 12.085938 167.296875 12.253906 C 167.675781 12.425781 167.980469 12.671875 168.222656 12.988281 C 168.464844 13.300781 168.585938 13.71875 168.589844 14.234375 C 168.589844 14.710938 168.507812 15.113281 168.324219 15.429688 C 168.140625 15.746094 167.90625 15.996094 167.609375 16.175781 C 167.308594 16.359375 166.976562 16.492188 166.601562 16.570312 C 166.226562 16.648438 165.84375 16.695312 165.4375 16.695312 L 162.445312 16.710938 L 162.421875 11.882812 Z M 162.496094 28.441406 L 162.457031 20.507812 L 165.738281 20.488281 C 166.8125 20.484375 167.808594 20.378906 168.730469 20.167969 C 169.648438 19.960938 170.445312 19.617188 171.113281 19.136719 C 171.78125 18.652344 172.308594 18.007812 172.683594 17.199219 C 173.0625 16.386719 173.253906 15.394531 173.246094 14.203125 C 173.242188 12.992188 173.03125 11.992188 172.609375 11.199219 C 172.191406 10.40625 171.632812 9.777344 170.933594 9.3125 C 170.226562 8.847656 169.40625 8.523438 168.464844 8.335938 C 167.523438 8.148438 166.527344 8.058594 165.472656 8.0625 L 157.902344 8.101562 L 158.011719 28.464844 L 162.496094 28.441406 "
       style=" stroke:none;fill-rule:nonzero;fill:rgb(13.464355%,13.723755%,14.414978%);fill-opacity:1;" />
    <path
       id="path43"
       d="M 190.828125 28.410156 L 190.804688 24.269531 L 180.933594 24.316406 L 180.910156 20.179688 L 189.746094 20.132812 L 189.722656 15.996094 L 180.886719 16.039062 L 180.871094 12.242188 L 190.222656 12.191406 L 190.199219 8.054688 L 176.359375 8.125 L 176.464844 28.484375 L 190.828125 28.410156 "
       style=" stroke:none;fill-rule:nonzero;fill:rgb(13.464355%,13.723755%,14.414978%);fill-opacity:1;" />
    <path
       id="path45"
       d="M 198.46875 16.511719 L 198.445312 11.882812 L 201.382812 11.867188 C 201.785156 11.859375 202.199219 11.886719 202.617188 11.941406 C 203.039062 12 203.417969 12.105469 203.746094 12.269531 C 204.074219 12.429688 204.339844 12.664062 204.554688 12.96875 C 204.765625 13.273438 204.878906 13.6875 204.878906 14.207031 C 204.878906 14.761719 204.761719 15.195312 204.523438 15.5 C 204.285156 15.804688 203.984375 16.039062 203.617188 16.183594 C 203.257812 16.332031 202.847656 16.414062 202.398438 16.449219 C 201.949219 16.484375 201.519531 16.5 201.113281 16.5 Z M 205.003906 28.410156 L 210.386719 28.378906 L 205.160156 19.808594 C 206.605469 19.527344 207.691406 18.890625 208.429688 17.882812 C 209.171875 16.867188 209.539062 15.644531 209.535156 14.207031 C 209.527344 13.019531 209.316406 12.03125 208.894531 11.238281 C 208.480469 10.445312 207.917969 9.816406 207.21875 9.351562 C 206.515625 8.886719 205.699219 8.550781 204.765625 8.359375 C 203.839844 8.160156 202.851562 8.0625 201.820312 8.070312 L 193.933594 8.113281 L 194.039062 28.476562 L 198.527344 28.453125 L 198.484375 20.3125 L 200.703125 20.300781 L 205.003906 28.410156 "
       style=" stroke:none;fill-rule:nonzero;fill:rgb(13.464355%,13.723755%,14.414978%);fill-opacity:1;" />
    <path
       id="path47"
       d="M 226.304688 28.378906 L 226.28125 24.242188 L 217.964844 24.285156 L 217.878906 8.0625 L 213.390625 8.085938 L 213.496094 28.445312 L 226.304688 28.378906 "
       style=" stroke:none;fill-rule:nonzero;fill:rgb(13.464355%,13.723755%,14.414978%);fill-opacity:1;" />
    <path
       id="path49"
       d="M 243.882812 28.398438 L 243.863281 24.257812 L 233.988281 24.308594 L 233.96875 20.167969 L 242.800781 20.117188 L 242.78125 15.984375 L 233.945312 16.027344 L 233.929688 12.230469 L 243.28125 12.183594 L 243.257812 8.042969 L 229.417969 8.113281 L 229.523438 28.46875 L 243.882812 28.398438 "
       style=" stroke:none;fill-rule:nonzero;fill:rgb(13.464355%,13.723755%,14.414978%);fill-opacity:1;" />
    <path
       id="path51"
       d="M 253.902344 24.289062 L 251.570312 24.300781 L 251.503906 12.21875 L 254.152344 12.203125 C 255.089844 12.199219 255.988281 12.316406 256.84375 12.554688 C 257.691406 12.785156 258.441406 13.140625 259.078125 13.617188 C 259.71875 14.097656 260.222656 14.703125 260.597656 15.4375 C 260.976562 16.175781 261.171875 17.042969 261.175781 18.042969 C 261.183594 19.191406 261 20.167969 260.632812 20.960938 C 260.261719 21.761719 259.75 22.402344 259.101562 22.898438 C 258.453125 23.390625 257.679688 23.742188 256.792969 23.964844 C 255.90625 24.175781 254.9375 24.285156 253.902344 24.289062 Z M 262.429688 25.785156 C 263.480469 24.929688 264.3125 23.867188 264.929688 22.609375 C 265.546875 21.347656 265.847656 19.894531 265.839844 18.246094 C 265.832031 16.386719 265.5 14.8125 264.851562 13.507812 C 264.199219 12.203125 263.324219 11.15625 262.226562 10.34375 C 261.128906 9.535156 259.84375 8.953125 258.375 8.597656 C 256.902344 8.242188 255.355469 8.070312 253.722656 8.074219 L 246.992188 8.109375 L 247.101562 28.46875 L 254.441406 28.429688 C 255.953125 28.425781 257.402344 28.199219 258.785156 27.746094 C 260.160156 27.292969 261.378906 26.644531 262.429688 25.785156 "
       style=" stroke:none;fill-rule:nonzero;fill:rgb(13.464355%,13.723755%,14.414978%);fill-opacity:1;" />
    <path
       id="path53"
       d="M 280.511719 16.367188 L 280.53125 20.507812 L 284.191406 20.488281 L 284.207031 23.796875 C 283.785156 24.03125 283.21875 24.257812 282.515625 24.480469 C 281.804688 24.703125 280.960938 24.816406 279.984375 24.824219 C 279.023438 24.828125 278.152344 24.667969 277.375 24.351562 C 276.597656 24.03125 275.925781 23.574219 275.367188 22.992188 C 274.804688 22.410156 274.378906 21.722656 274.074219 20.925781 C 273.773438 20.132812 273.617188 19.257812 273.613281 18.296875 C 273.605469 17.359375 273.753906 16.488281 274.046875 15.679688 C 274.339844 14.867188 274.761719 14.175781 275.316406 13.582031 C 275.871094 12.992188 276.539062 12.535156 277.308594 12.203125 C 278.085938 11.875 278.953125 11.703125 279.910156 11.703125 C 281.058594 11.699219 282.027344 11.855469 282.792969 12.175781 C 283.5625 12.5 284.257812 12.976562 284.871094 13.601562 L 288.019531 10.132812 C 286.980469 9.179688 285.773438 8.511719 284.394531 8.125 C 283.023438 7.738281 281.519531 7.554688 279.890625 7.558594 C 278.296875 7.566406 276.832031 7.824219 275.496094 8.332031 C 274.152344 8.835938 272.996094 9.550781 272.019531 10.488281 C 271.042969 11.425781 270.289062 12.558594 269.75 13.878906 C 269.214844 15.207031 268.945312 16.683594 268.957031 18.3125 C 268.96875 19.945312 269.246094 21.414062 269.800781 22.742188 C 270.355469 24.0625 271.121094 25.183594 272.109375 26.105469 C 273.089844 27.03125 274.257812 27.738281 275.601562 28.230469 C 276.941406 28.71875 278.414062 28.964844 280.007812 28.953125 C 281.503906 28.945312 282.96875 28.785156 284.40625 28.46875 C 285.84375 28.160156 287.21875 27.648438 288.539062 26.949219 L 288.484375 16.308594 L 280.511719 16.367188 "
       style=" stroke:none;fill-rule:nonzero;fill:rgb(13.464355%,13.723755%,14.414978%);fill-opacity:1;" />
    <path
       id="path55"
       d="M 306.117188 27.925781 L 306.09375 23.785156 L 296.226562 23.839844 L 296.203125 19.695312 L 305.039062 19.652344 L 305.015625 15.511719 L 296.183594 15.554688 L 296.160156 11.761719 L 305.511719 11.710938 L 305.496094 7.570312 L 291.652344 7.640625 L 291.757812 28.003906 L 306.117188 27.925781 "
       style=" stroke:none;fill-rule:nonzero;fill:rgb(13.464355%,13.723755%,14.414978%);fill-opacity:1;" />
    <g
       id="g59"
       clip-rule="nonzero"
       clip-path="url(#clip1)">
      <path
         id="path57"
         d="M 316.671875 11.382812 C 317.074219 11.382812 317.488281 11.40625 317.910156 11.460938 C 318.332031 11.515625 318.707031 11.621094 319.03125 11.789062 C 319.355469 11.949219 319.628906 12.183594 319.839844 12.488281 C 320.050781 12.792969 320.15625 13.203125 320.160156 13.722656 C 320.160156 14.28125 320.046875 14.710938 319.804688 15.015625 C 319.566406 15.324219 319.269531 15.554688 318.902344 15.695312 C 318.535156 15.84375 318.128906 15.925781 317.679688 15.960938 C 317.230469 15.988281 316.804688 16.011719 316.398438 16.011719 L 313.753906 16.027344 L 313.730469 11.398438 Z M 313.824219 27.964844 L 313.78125 19.824219 L 315.992188 19.8125 L 320.296875 27.925781 L 325.675781 27.898438 L 320.449219 19.328125 C 321.886719 19.050781 322.980469 18.40625 323.722656 17.402344 C 324.464844 16.386719 324.835938 15.167969 324.828125 13.730469 C 324.824219 12.542969 324.613281 11.550781 324.195312 10.761719 C 323.78125 9.96875 323.21875 9.335938 322.515625 8.875 C 321.808594 8.40625 320.992188 8.074219 320.0625 7.882812 C 319.128906 7.679688 318.148438 7.585938 317.109375 7.59375 L 309.222656 7.632812 L 309.328125 27.988281 L 313.824219 27.964844 "
         style=" stroke:none;fill-rule:nonzero;fill:rgb(13.464355%,13.723755%,14.414978%);fill-opacity:1;" />
    </g>
    <path
       id="path61"
       d="M 112.28125 64.851562 C 112.28125 52.023438 121.714844 43.574219 133.433594 43.574219 C 140.769531 43.574219 145.828125 46.78125 149.402344 51.222656 L 145.335938 53.8125 C 142.746094 50.480469 138.363281 48.136719 133.433594 48.136719 C 124.429688 48.136719 117.582031 54.980469 117.582031 64.851562 C 117.582031 74.59375 124.429688 81.5625 133.433594 81.5625 C 138.363281 81.5625 142.4375 79.21875 144.53125 77.121094 L 144.53125 68.796875 L 130.347656 68.796875 L 130.347656 64.234375 L 149.589844 64.234375 L 149.589844 79.035156 C 145.765625 83.351562 140.152344 86.1875 133.433594 86.1875 C 121.714844 86.1875 112.28125 77.613281 112.28125 64.851562 "
       style=" stroke:none;fill-rule:nonzero;fill:rgb(95.159912%,37.368774%,9.67865%);fill-opacity:1;" />
    <path
       id="path63"
       d="M 182.09375 56.648438 C 182.09375 51.960938 178.703125 48.816406 173.832031 48.816406 L 163.039062 48.816406 L 163.039062 64.542969 L 173.832031 64.542969 C 178.703125 64.542969 182.09375 61.273438 182.09375 56.648438 Z M 181.722656 85.386719 L 171.300781 69.042969 L 163.039062 69.042969 L 163.039062 85.386719 L 157.921875 85.386719 L 157.921875 44.253906 L 174.445312 44.253906 C 181.972656 44.253906 187.398438 49.0625 187.398438 56.648438 C 187.398438 64.046875 182.28125 68.117188 176.667969 68.613281 L 187.769531 85.386719 L 181.722656 85.386719 "
       style=" stroke:none;fill-rule:nonzero;fill:rgb(95.159912%,37.368774%,9.67865%);fill-opacity:1;" />
    <path
       id="path65"
       d="M 195.480469 85.386719 L 195.480469 44.253906 L 200.597656 44.253906 L 200.597656 85.386719 L 195.480469 85.386719 "
       style=" stroke:none;fill-rule:nonzero;fill:rgb(95.159912%,37.368774%,9.67865%);fill-opacity:1;" />
    <path
       id="path67"
       d="M 240.070312 64.851562 C 240.070312 55.96875 234.457031 48.816406 224.28125 48.816406 L 215.339844 48.816406 L 215.339844 80.824219 L 224.28125 80.824219 C 234.273438 80.824219 240.070312 73.667969 240.070312 64.851562 Z M 210.222656 85.386719 L 210.222656 44.253906 L 224.28125 44.253906 C 237.109375 44.253906 245.371094 53.195312 245.371094 64.851562 C 245.371094 76.566406 237.109375 85.386719 224.28125 85.386719 L 210.222656 85.386719 "
       style=" stroke:none;fill-rule:nonzero;fill:rgb(95.159912%,37.368774%,9.67865%);fill-opacity:1;" />
    <path
       id="path69"
       d="M 48.851562 25.40625 L 48.851562 10.699219 L 63.09375 10.699219 L 63.09375 25.40625 L 48.851562 25.40625 "
       style=" stroke:none;fill-rule:nonzero;fill:rgb(13.464355%,13.723755%,14.414978%);fill-opacity:1;" />
    <path
       id="path71"
       d="M 68.078125 25.40625 L 68.078125 10.699219 L 82.019531 10.699219 L 82.019531 25.40625 L 68.078125 25.40625 "
       style=" stroke:none;fill-rule:nonzero;fill:rgb(13.464355%,13.723755%,14.414978%);fill-opacity:1;" />
    <path
       id="path73"
       d="M 10.699219 44.191406 L 10.699219 30.390625 L 25.082031 30.390625 L 25.082031 44.191406 L 10.699219 44.191406 "
       style=" stroke:none;fill-rule:nonzero;fill:rgb(13.464355%,13.723755%,14.414978%);fill-opacity:1;" />
    <path
       id="path75"
       d="M 48.851562 44.191406 L 48.851562 30.390625 L 63.09375 30.390625 L 63.09375 44.191406 L 48.851562 44.191406 "
       style=" stroke:none;fill-rule:nonzero;fill:rgb(13.464355%,13.723755%,14.414978%);fill-opacity:1;" />
    <path
       id="path77"
       d="M 30.066406 82.019531 L 30.066406 68.398438 L 43.867188 68.398438 L 43.867188 82.019531 L 30.066406 82.019531 "
       style=" stroke:none;fill-rule:nonzero;fill:rgb(13.464355%,13.723755%,14.414978%);fill-opacity:1;" />
    <path
       id="path79"
       d="M 30.066406 25.40625 L 30.066406 10.699219 L 43.867188 10.699219 L 43.867188 25.40625 L 30.066406 25.40625 "
       style=" stroke:none;fill-rule:nonzero;fill:rgb(13.464355%,13.723755%,14.414978%);fill-opacity:1;" />
    <path
       id="path81"
       d="M 68.078125 44.191406 L 68.078125 30.390625 L 82.019531 30.390625 L 82.019531 44.191406 L 68.078125 44.191406 "
       style=" stroke:none;fill-rule:nonzero;fill:rgb(13.464355%,13.723755%,14.414978%);fill-opacity:1;" />
    <path
       id="path83"
       d="M 30.066406 44.191406 L 30.066406 30.390625 L 43.867188 30.390625 L 43.867188 44.191406 L 30.066406 44.191406 "
       style=" stroke:none;fill-rule:nonzero;fill:rgb(13.464355%,13.723755%,14.414978%);fill-opacity:1;" />
    <path
       id="path85"
       d="M 30.066406 63.414062 L 30.066406 49.175781 L 43.867188 49.175781 L 43.867188 63.414062 L 30.066406 63.414062 "
       style=" stroke:none;fill-rule:nonzero;fill:rgb(13.464355%,13.723755%,14.414978%);fill-opacity:1;" />
    <path
       id="path87"
       d="M 48.851562 63.414062 L 48.851562 49.175781 L 63.09375 49.175781 L 63.09375 63.414062 L 48.851562 63.414062 "
       style=" stroke:none;fill-rule:nonzero;fill:rgb(95.159912%,37.368774%,9.67865%);fill-opacity:1;" />
    <path
       id="path89"
       d="M 10.699219 25.40625 L 10.699219 10.699219 L 25.082031 10.699219 L 25.082031 25.40625 L 10.699219 25.40625 "
       style=" stroke:none;fill-rule:nonzero;fill:rgb(95.159912%,37.368774%,9.67865%);fill-opacity:1;" />
    <path
       id="path91"
       d="M 10.699219 82.019531 L 10.699219 68.398438 L 25.082031 68.398438 L 25.082031 82.019531 L 10.699219 82.019531 "
       style=" stroke:none;fill-rule:nonzero;fill:rgb(13.464355%,13.723755%,14.414978%);fill-opacity:1;" />
    <path
       id="path93"
       d="M 10.699219 63.414062 L 10.699219 49.175781 L 25.082031 49.175781 L 25.082031 63.414062 L 10.699219 63.414062 "
       style=" stroke:none;fill-rule:nonzero;fill:rgb(13.464355%,13.723755%,14.414978%);fill-opacity:1;" />
    <g
       id="g97"
       clip-rule="nonzero"
       clip-path="url(#clip2)">
      <path
         id="path95"
         d="M 92.71875 0 L 0 0 L 0 92.71875 L 92.71875 92.71875 Z M 87.699219 5.019531 L 87.699219 87.699219 L 5.019531 87.699219 L 5.019531 5.019531 L 87.699219 5.019531 "
         style=" stroke:none;fill-rule:nonzero;fill:rgb(95.159912%,37.368774%,9.67865%);fill-opacity:1;" />
    </g>
  </g>
</svg>

<svg width="280" height="93" xmlns="http://www.w3.org/2000/svg" xmlns:cc="http://creativecommons.org/ns#" fill="none">

 <g>
  <title>Layer 1</title>
  <path id="svg_12" fill="#F35F19" d="m112.281,46.47075c0,-12.8282 9.434,-21.2774 21.153,-21.2774c7.336,0 12.394,3.2071 15.968,7.6485l-4.066,2.5898c-2.59,-3.332 -6.973,-5.6758 -11.902,-5.6758c-9.004,0 -15.852,6.8438 -15.852,16.7149c0,9.7422 6.848,16.7109 15.852,16.7109c4.929,0 9.004,-2.3438 11.097,-4.4414l0,-8.3242l-14.183,0l0,-4.5625l19.242,0l0,14.8008c-3.824,4.3164 -9.438,7.1523 -16.156,7.1523c-11.719,0 -21.153,-8.5742 -21.153,-21.3359z"/>
  <path id="svg_13" fill="#F35F19" d="m182.094,38.3281c0,-4.6875 -3.391,-7.832 -8.262,-7.832l-10.793,0l0,15.7266l10.793,0c4.871,0 8.262,-3.2696 8.262,-7.8946zm-0.371,28.7383l-10.422,-16.3437l-8.262,0l0,16.3437l-5.117,0l0,-41.1328l16.523,0c7.528,0 12.953,4.8086 12.953,12.3945c0,7.3985 -5.117,11.4688 -10.73,11.9649l11.102,16.7734l-6.047,0z"/>
  <path id="svg_14" fill="#F35F19" d="m195.48,67.0664l0,-41.1328l5.118,0l0,41.1328l-5.118,0z"/>
  <path id="svg_15" fill="#F35F19" d="m240.07,46.5313c0,-8.8828 -5.613,-16.0352 -15.789,-16.0352l-8.941,0l0,32.0078l8.941,0c9.992,0 15.789,-7.1562 15.789,-15.9726zm-29.847,20.5351l0,-41.1328l14.058,0c12.828,0 21.09,8.9414 21.09,20.5977c0,11.7148 -8.262,20.5351 -21.09,20.5351l-14.058,0z"/>
  <path id="svg_16" fill="#222325" d="m48.8516,25.4062l0,-14.707l14.2422,0l0,14.707l-14.2422,0z"/>
  <path id="svg_17" fill="#222325" d="m68.0781,25.4062l0,-14.707l13.9414,0l0,14.707l-13.9414,0z"/>
  <path id="svg_18" fill="#222325" d="m10.6992,44.1914l0,-13.8008l14.3828,0l0,13.8008l-14.3828,0z"/>
  <path id="svg_19" fill="#222325" d="m48.8516,44.1914l0,-13.8008l14.2422,0l0,13.8008l-14.2422,0z"/>
  <path id="svg_20" fill="#222325" d="m30.0664,82.0195l0,-13.6211l13.8008,0l0,13.6211l-13.8008,0z"/>
  <path id="svg_21" fill="#222325" d="m30.0664,25.4062l0,-14.707l13.8008,0l0,14.707l-13.8008,0z"/>
  <path id="svg_22" fill="#222325" d="m68.0781,44.1914l0,-13.8008l13.9414,0l0,13.8008l-13.9414,0z"/>
  <path id="svg_23" fill="#222325" d="m30.0664,44.1914l0,-13.8008l13.8008,0l0,13.8008l-13.8008,0z"/>
  <path id="svg_24" fill="#222325" d="m30.0664,63.4141l0,-14.2383l13.8008,0l0,14.2383l-13.8008,0z"/>
  <path id="svg_25" fill="#F35F19" d="m48.8516,63.4141l0,-14.2383l14.2422,0l0,14.2383l-14.2422,0z"/>
  <path id="svg_26" fill="#F35F19" d="m10.6992,25.4062l0,-14.707l14.3828,0l0,14.707l-14.3828,0z"/>
  <path id="svg_27" fill="#222325" d="m10.6992,82.0195l0,-13.6211l14.3828,0l0,13.6211l-14.3828,0z"/>
  <path id="svg_28" fill="#222325" d="m10.6992,63.4141l0,-14.2383l14.3828,0l0,14.2383l-14.3828,0z"/>
  <path id="svg_29" fill="#F35F19" d="m92.7188,0l-92.7188,0l0,92.7188l92.7188,0l0,-92.7188zm-5.0196,5.01953l0,82.67967l-82.67967,0l0,-82.67967l82.67967,0z"/>
 </g>
</svg>
